X:1
T:Title
%%score { ( 1 3 ) | ( 2 4 ) }
L:1/8
Q:1/4=104
M:4/4
K:Bb
V:1 treble nm="Grand Piano"
V:3 treble 
V:2 bass 
V:4 bass 
V:1
 [DF]2 [B,D]>[CE] [DF]2 [FB]>[Fc] | B2 A2 A4 | A2 A>B c2 c>d | [Ec]2 [DB]2 [DF]4 | %4
w: Elisha~A.~Hoffman * * * * *||||
 [DF]2 [Fd]>[Fd] [Fd]2 [_Af]>[Af] | [Gf]2 [Ge]2 G4 | F2 F>F F2 G>A | [DB]2 [EB]2 [DB]4 | %8
w: ||||
 [Fd]2 [Fd]>[Fd] [Fd]2 [Fd]2 | [Ff]6 z2 | [DGB]2 [DGB]>[DGB] [DGB]2 [DGB]2 | [^Fd]6 z2 | %12
w: ||||
 [Ge]2 [Gd]2 [Gc]2 [Gd]>[Ge] | [Bd]2 [EFc]2 [DFB]2 F2 | [FB]2 [Fd]>[Fd] [DFf]2 [CEA]2 | B6 z2 |] %16
w: ||||
V:2
 [B,,B,]2 [B,,F,]>[B,,F,] [B,,B,]2 [D,B,]>[D,B,] | [F,DF]2 [F,CF]2 [F,CF]4 | %2
 [F,CF]2 [F,F]>[F,G,F] [F,A,F]2 [F,A,E]>[F,A,F] | [B,,F,]2 [B,,F,]2 [B,,B,]4 | %4
 [B,,B,]2 [B,,B,]>[B,,B,] [B,,B,]2 [D,B,]>[D,B,] | [E,B,]2 [E,B,]2 [E,B,E]4 | %6
 [F,B,D]2 [F,B,D]>[F,B,D] [F,A,C]2 [F,CE]>[F,CE] | [B,,B,]2 [B,,G,]2 [B,,F,]4 | %8
 [B,,B,]2 [B,,B,]>[B,,B,] [B,,B,]2 [B,,B,]2 | [B,,D]2 B,,2 B,,2 D,2 | G,2 G,>G, G,2 G,2 | %11
 D,2 D,2 D,2 [D,A,]2 | [C,C]2 [D,=B,]2 [E,C]2 [D,B,]>[C,C] | [F,F]2 F,2 B,,2 F,2 | %14
 [D,F,]2 [B,,B,]>[B,,B,] F,,2 F,,2 | z2 G,2 F,2 z2 |] %16
V:3
 x8 | x8 | x8 | x8 | x8 | x8 | x8 | x8 | x8 | z2 D2 D2 [B,FB]2 | x8 | D2 A,2 A,2 [^Fd]2 | x8 | x8 | %14
 x8 | [B,D]2 E2 D2 z2 |] %16
V:4
 x8 | x8 | x8 | x8 | x8 | x8 | x8 | x8 | x8 | x8 | x8 | x8 | x8 | x8 | x8 | B,,6 z2 |] %16

